public/icons/tools/javascript.svg

<svg width="64" height="64" viewBox="0 0 64 64" fill="none" xmlns="http://www.w3.org/2000/svg">
<path d="M8 8H56V56H8V8ZM20.6133 48.1067C21.68 50.3733 23.7867 52.24 27.3867 52.24C31.3867 52.24 34.1333 50.1067 34.1333 45.44V30.0267H29.6V45.3333C29.6 47.6267 28.6667 48.2133 27.2 48.2133C25.6533 48.2133 25.0133 47.1467 24.2933 45.8933L20.6133 48.1067ZM36.56 47.6267C37.8933 50.24 40.5867 52.24 44.8 52.24C49.0667 52.24 52.2667 50.0267 52.2667 45.9467C52.2667 42.1867 50.1067 40.5067 46.2667 38.8533L45.1467 38.3733C43.2 37.5467 42.3733 36.9867 42.3733 35.6533C42.3733 34.56 43.2 33.7067 44.5333 33.7067C45.8133 33.7067 46.6667 34.2667 47.44 35.6533L50.9333 33.3333C49.4667 30.7733 47.3867 29.7867 44.5333 29.7867C40.5067 29.7867 37.92 32.3467 37.92 35.7333C37.92 39.4133 40.08 41.1467 43.3333 42.5333L44.4533 43.0133C46.5333 43.92 47.76 44.48 47.76 46.0267C47.76 47.3067 46.56 48.24 44.6933 48.24C42.48 48.24 41.2 47.0933 40.24 45.4933L36.56 47.6267Z" fill="black"/>
</svg>

<svg width="64" height="64" fill="none" xmlns="http://www.w3.org/2000/svg"><path d="M8 8h48v48H8V8zm12.613 40.107c1.067 2.266 3.174 4.133 6.774 4.133 4 0 6.746-2.133 6.746-6.8V30.027H29.6v15.306c0 2.294-.933 2.88-2.4 2.88-1.547 0-2.187-1.066-2.907-2.32l-3.68 2.214zm15.947-.48c1.333 2.613 4.027 4.613 8.24 4.613 4.267 0 7.467-2.213 7.467-6.293 0-3.76-2.16-5.44-6-7.094l-1.12-.48c-1.947-.826-2.774-1.386-2.774-2.72 0-1.093.827-1.946 2.16-1.946 1.28 0 2.134.56 2.907 1.946l3.493-2.32c-1.466-2.56-3.546-3.546-6.4-3.546-4.026 0-6.613 2.56-6.613 5.946 0 3.68 2.16 5.414 5.413 6.8l1.12.48c2.08.907 3.307 1.467 3.307 3.014 0 1.28-1.2 2.213-3.067 2.213-2.213 0-3.493-1.147-4.453-2.747l-3.68 2.134z" fill="#000"/></svg>
